X:1
T:Title
%%score { 1 | ( 2 3 ) }
L:1/8
Q:1/4=100
M:6/8
K:C
V:1 treble nm="Grand Piano"
V:2 bass 
V:3 bass 
V:1
 C2 E [EA]2 [EG] | [CE]2 [EG] [Ed]2 [Ec] | B2 A c2 A | [EG]6 | F2 E F2 G | E2 _E =E2 [EG] | %6
w: Lester~Rink * * *||||||
 ^F2 =F ^F2 [Fd] | G6 | d2 ^c e2 d | [Ec]2 E [_EA]2 [G,=EG] | cBA B2 E | A3 [DFB]3 | %12
w: ||||||
 .[CEc]2 [Ec] [Ge]2 [Gc] | A^GA c2 A | G^FG A2 B | [Ec]6 |] %16
w: ||||
V:2
 [C,E,]2 [C,G,C] [C,C]2 [C,C] | [C,G,]2 [C,G,] [C,G,]2 [C,C] | [F,CF]2 [F,CF] [F,A,F]2 [F,CF] | %3
 [C,C]6 | [G,B,D]2 [G,_B,^C] [G,=B,D]2 [G,B,D] | [C,G,C]2 [C,F,C] [C,G,C]2 [C,C] | %6
 [D,CD]2 [D,CD] [D,CD]2 [D,C] | [G,B,]6 | [G,B,F]2 [G,_B,E] [G,=B,G]2 [G,B,F] | %9
 [C,C]2 [C,G,] [C,^F,]2 C, | CB,A, B,2 E, | A,3 G,3 | z[K:treble] B[K:bass][C,C] [C,C]2 [E,C] | %13
 [F,CF]2 [F,CF][K:treble] [F,A,F]2 [F,CF] | [G,CE]2 [G,CE] [G,B,F]2 [G,DF] | [C,C]6 |] %16
V:3
 x6 | x6 | x6 | x6 | x6 | x6 | x6 | x6 | x6 | x6 | x6 | x6 | .C,3[K:treble][K:bass] z3 | %13
 x3[K:treble] x3 | x6 | x6 |] %16

